!!!OTL: Little Musgrave and Lady Barnard
!!!ONM: 5.
**kern
*clefG2
*k[b-e-]
*B-:
*M4/4
*MM84
{4B-
=1
4f
4f
4f
4f
=2
4d
4c
4B-}
{4f
=3
4b-
4f
4b-
4cc
=4
2b-
4r}
{4f
=5
4b-
4g
4f
4d
=6
4b-
4g
4f}
{8f
8g
=7
2f
4r
8d
8g
=8
4f
4c
4B-}
{8f
8g
=9
2f
4r
8d
8g
=10
4f
4c
4B-}
==
*-
!!!CNT: Folksongs of Maritime Canada
!!!MRD: 1928///-1932///
!!!OCL: Helen Creighton
!!!YOR: Songs and Ballads from Nova Scotia
!!!PPR: J.M. Dent & Sons, Limited
!!!PPP: Toronto, Canada
!!!PDT: 1932///
!!!reprint: Dover Publications, 1992: ISBN 0-486-21703-5
!!!ENC1: Craig Stuart Sapp (music and bibliographic data)                       
!!!ENC2: Marcus Pearce (phrase markings and key designations)                   
!!!ENC3: Darrell Conklin (phrase markings and key designations)   
!!!END: 2002/04/10/
!!!EEV: 2004/06/05
!!!MPN: Mrs. William McNab
!!!PPG: 11
!!!EFL: 5/152
!!!ARE: Canada; Nova Scotia
!!!verses: 4
!!!VTS: 3208315214
